X:2
T:Rocky Road to Dublin [1]
M:9/8
L:1/8
K:ADor
ege d2B A2G|E2A A2B c2d|ege d2B A2c|B2G G2A Bcd:|
|:e2a a2f g3|e2a a2f ged|e2a a2f g2e|d2B G2A Bcd:|
